svg/Meteorology/fronts/cold_front_up.svg

<?xml version="1.0" encoding="UTF-8" standalone="no"?>
<!-- Created with Inkscape (http://www.inkscape.org/) -->
<svg
   xmlns:dc="http://purl.org/dc/elements/1.1/"
   xmlns:cc="http://web.resource.org/cc/"
   xmlns:rdf="http://www.w3.org/1999/02/22-rdf-syntax-ns#"
   xmlns:svg="http://www.w3.org/2000/svg"
   xmlns="http://www.w3.org/2000/svg"
   xmlns:sodipodi="http://sodipodi.sourceforge.net/DTD/sodipodi-0.dtd"
   xmlns:inkscape="http://www.inkscape.org/namespaces/inkscape"
   width="744.09448819"
   height="1052.3622047"
   id="svg2"
   sodipodi:version="0.32"
   inkscape:version="0.44.1"
   sodipodi:docbase="F:\QGIS_N_ARROWS\METEOROLOGY"
   sodipodi:docname="cold_front_up.svg">
  <defs
     id="defs4" />
  <sodipodi:namedview
     id="base"
     pagecolor="#ffffff"
     bordercolor="#666666"
     borderopacity="1.0"
     inkscape:pageopacity="0.0"
     inkscape:pageshadow="2"
     inkscape:zoom="3.959798"
     inkscape:cx="108.06719"
     inkscape:cy="578.12112"
     inkscape:document-units="px"
     inkscape:current-layer="layer1"
     showgrid="true"
     inkscape:window-width="1280"
     inkscape:window-height="744"
     inkscape:window-x="-4"
     inkscape:window-y="-4" />
  <metadata
     id="metadata7">
    <rdf:RDF>
      <cc:Work
         rdf:about="">
        <dc:format>image/svg+xml</dc:format>
        <dc:type
           rdf:resource="http://purl.org/dc/dcmitype/StillImage" />
      </cc:Work>
    </rdf:RDF>
  </metadata>
  <g
     inkscape:label="Livello 1"
     inkscape:groupmode="layer"
     id="layer1">
    <g
       id="g1961"
       inkscape:label="Livello 1"
       transform="translate(-248.8178,-6.648461)"
       style="fill:#0000f8;fill-opacity:0.98876405;stroke:#0000f7;stroke-opacity:1">
      <g
         transform="matrix(3.341616,0,0,4.379956,-909.1249,-1868.918)"
         id="g4353"
         style="fill:#0000f8;fill-opacity:0.98876405;stroke:#0000f7;stroke-opacity:1">
        <path
           style="fill:#0000f8;fill-opacity:0.98876405;fill-rule:evenodd;stroke:#0000f7;stroke-width:1px;stroke-linecap:butt;stroke-linejoin:miter;stroke-opacity:1"
           d="M 350,547.36218 L 365,547.36218 L 358.09908,532.36218 L 350,547.36218 z "
           id="path3460" />
        <path
           style="fill:#0000f8;fill-opacity:0.98876405;fill-rule:evenodd;stroke:#0000f7;stroke-width:1px;stroke-linecap:butt;stroke-linejoin:miter;stroke-opacity:1"
           d="M 366.63525,547.30863 L 381.63525,547.30863 L 374.73433,532.30863 L 366.63525,547.30863 z "
           id="path4347" />
        <path
           style="fill:#0000f8;fill-opacity:0.98876405;fill-rule:evenodd;stroke:#0000f7;stroke-width:1px;stroke-linecap:butt;stroke-linejoin:miter;stroke-opacity:1"
           d="M 399.98966,547.23646 L 414.98966,547.23646 L 408.08874,532.23646 L 399.98966,547.23646 z "
           id="path4349" />
        <path
           style="fill:#0000f8;fill-opacity:0.98876405;fill-rule:evenodd;stroke:#0000f7;stroke-width:1px;stroke-linecap:butt;stroke-linejoin:miter;stroke-opacity:1"
           d="M 383.46211,547.22105 L 398.46211,547.22105 L 391.56119,532.22105 L 383.46211,547.22105 z "
           id="path4351" />
      </g>
    </g>
  </g>
</svg>

<svg xmlns="http://www.w3.org/2000/svg" viewBox="0 0 744.09 1052.36"><g transform="matrix(3.34162 0 0 4.37996-1157.94-1875.57)" fill="#0000f8" stroke="#0000f7" fill-opacity=".989" fill-rule="evenodd"><path d="m350 547.36h15l-6.901-15-8.099 15z"/><path d="m366.64 547.31h15l-6.901-15-8.099 15z"/><path d="m399.99 547.24h15l-6.901-15-8.099 15z"/><path d="m383.46 547.22h15l-6.901-15-8.099 15z"/></g></svg>
